build/img/landings/copywriting/ylearn/i5.svg

<svg width="498" height="157" viewBox="0 0 498 157" fill="none" xmlns="http://www.w3.org/2000/svg">
<path fill-rule="evenodd" clip-rule="evenodd" d="M272 69H2C6.34767 42.0362 21.4657 48.9006 28.5306 55.765C73.8353 -40.1394 116.126 13.7883 131.59 52.7526C153.773 16.6032 176.994 37.6904 185.837 52.7526C231.636 22.3812 262.366 50.9253 272 69Z" stroke="black" stroke-width="3"/>
<path fill-rule="evenodd" clip-rule="evenodd" d="M148 155.393H495.8C490.2 120.593 470.7 129.493 461.6 138.293C403.2 14.6931 348.8 84.1931 328.8 134.393C300.2 87.7931 270.3 114.993 258.9 134.393C200 95.3931 160.4 132.193 148 155.393Z" stroke="black" stroke-width="3"/>
</svg>

<svg width="498" height="157" fill="none" xmlns="http://www.w3.org/2000/svg"><path clip-rule="evenodd" d="M272 69H2c4.348-26.964 19.466-20.1 26.53-13.235 45.305-95.904 87.596-41.977 103.06-3.012 22.183-36.15 45.404-15.063 54.247 0C231.636 22.38 262.366 50.925 272 69zm-124 86.393h347.8c-5.6-34.8-25.1-25.9-34.2-17.1-58.4-123.6-112.8-54.1-132.8-3.9-28.6-46.6-58.5-19.4-69.9 0-58.9-39-98.5-2.2-110.9 21z" stroke="#000" stroke-width="3"/></svg>
